X:0
T:Sounds Familiar
M:C|
C:© Paul Gitlitz 2009
R:Reel
K:A
"A"Acec "Bm"dcBd|"C#m"cBAc "D"BAGE|"A"A2AG "F#m"ABcA|"Bm"BAdc "E"B2(3EFG|!
"A"Acec "Bm"dcBd|"A"cBAc "E"BAGE|"A"A2AG "F#m"ABcA|1"E"BAGB "A"A2(3EFG:|2"E"BAGB "A"A2cd|!
|:"A"eAAe "D"dAAd|"A"cAAd "E"BAGE|"A"A2AG "F#m"ABcA|"Bm"BAdc "E"B2cd|!
"A"eAAe "D"dAAd|"A"cAAd "E"BAGE|"A"A2AG "F#m"ABcA|1"E"BAGB "A"ABcd:|2"E"BAGB "A"A4|]
